!! 00000] TT[WS
!!!OTL: Wuge fangyang
!!!ARE: Asia, China, Shanxi Hequ
!! Ethnic Group: Han
!! WII, 83
!!!SCT: J0524
!!!YEM: Copyright 1995, estate of Helmut Schaffrath.
**kern
*ICvox
*Ivox
*M2/4
*k[b-]
*F:
{4a
8ff
8dd
=1
2cc
=2
8a
8cc
8a
8d
=3
2f}
=4
{8g
8a
8cc
8ff
=5
8dd
8cc
8.a
16cc
=6
8g
8f
8a
8d
=7
2c}
=8
{8g
8e
16g
16a
16g
16a
=9
8g
8g
16g
16a
16g
16a
=10
8f
8e
8d
8c
=11
2cc}
=12
{8.cc
16ff
8dd
8cc
=13
8f
8d
8f
16a
16cc
=14
8g
8e
8g
16g
16a
=15
8cc
8f
8a
8d
=16
2c}
=17
{8g
8e
8r
16g
16a
=18
8g
8a
16g
16a
16g
16a
=19
8f
8e
16d
16e
16d
16c
=20
2c}
==
!!!AGN: Xiaodiao. Qingge, Sichun
!!!ONB: ESAC (Essen Associative Code) Database: CHINA
!!!AMT: simple duple
!!!AIN: vox
!!!EED: Helmut Schaffrath
!!!EEV: 1.0
*-
